common/src/main/resources/icons/plugins/ruby/expui/rspec/rspecSharedGroup.svg

<svg xmlns="http://www.w3.org/2000/svg" xml:space="preserve" width="16" height="16" fill-rule="evenodd" stroke-linejoin="round" stroke-miterlimit="1.414" clip-rule="evenodd" data-big="true" viewBox="0 0 24 24"><path d="M10 4H4c-1.11 0-2 .89-2 2v12c0 1.097.903 2 2 2h16c1.097 0 2-.903 2-2V8a2 2 0 0 0-2-2h-8z" style="fill:#1de9b6;fill-rule:nonzero"/><path d="M7 2v2h1v14c0 2.194 1.806 4 4 4s4-1.806 4-4V4h1V2zm4 14c-.6 0-1-.4-1-1s.4-1 1-1 1 .4 1 1-.4 1-1 1m2-4c-.6 0-1-.4-1-1s.4-1 1-1 1 .4 1 1-.4 1-1 1m1-5h-4V4h4z" style="fill:#00897b;fill-rule:nonzero" transform="matrix(.69514 0 0 .69514 9.134 6.707)"/></svg>

<!--
  - The MIT License (MIT)
  -
  - Copyright (c) 2015-2024 Elior "Mallowigi" Boukhobza
  -
  - Permission is hereby granted, free of charge, to any person obtaining a copy
  - of this software and associated documentation files (the "Software"), to deal
  - in the Software without restriction, including without limitation the rights
  - to use, copy, modify, merge, publish, distribute, sublicense, and/or sell
  - copies of the Software, and to permit persons to whom the Software is
  - furnished to do so, subject to the following conditions:
  -
  - The above copyright notice and this permission notice shall be included in all
  - copies or substantial portions of the Software.
  -
  - THE SOFTWARE IS PROVIDED "AS IS", WITHOUT WARRANTY OF ANY KIND, EXPRESS OR
  - IMPLIED, INCLUDING BUT NOT LIMITED TO THE WARRANTIES OF MERCHANTABILITY,
  - FITNESS FOR A PARTICULAR PURPOSE AND NONINFRINGEMENT. IN NO EVENT SHALL THE
  - AUTHORS OR COPYRIGHT HOLDERS BE LIABLE FOR ANY CLAIM, DAMAGES OR OTHER
  - LIABILITY, WHETHER IN AN ACTION OF CONTRACT, TORT OR OTHERWISE, ARISING FROM,
  - OUT OF OR IN CONNECTION WITH THE SOFTWARE OR THE USE OR OTHER DEALINGS IN THE
  - SOFTWARE.
  -->

<svg data-big="true" viewBox="0 0 24 24" width="16px" height="16px" clip-rule="evenodd" fill-rule="evenodd"
     stroke-linejoin="round"
     stroke-miterlimit="1.4142" version="1.1" xmlns="http://www.w3.org/2000/svg" xml:space="preserve">
    <path id="path3338"
          d="M10,4L4,4C2.89,4 2,4.89 2,6L2,18C2,19.097 2.903,20 4,20L20,20C21.097,20 22,19.097 22,18L22,8C22,6.89 21.1,6 20,6L12,6L10,4Z"
          style="fill:rgb(29,233,182);fill-rule:nonzero;"/>
  <g transform="matrix(0.695139,0,0,0.695139,9.13403,6.70694)">   <path
    d="M7,2L7,4L8,4L8,18C8,20.194 9.806,22 12,22C14.194,22 16,20.194 16,18L16,4L17,4L17,2L7,2M11,16C10.4,16 10,15.6 10,15C10,14.4 10.4,14 11,14C11.6,14 12,14.4 12,15C12,15.6 11.6,16 11,16M13,12C12.4,12 12,11.6 12,11C12,10.4 12.4,10 13,10C13.6,10 14,10.4 14,11C14,11.6 13.6,12 13,12M14,7L10,7L10,4L14,4L14,7Z"
    style="fill:rgb(0,137,123);fill-rule:nonzero;"/>
    </g>
</svg>
